rospo-dark/small/status/appointment-missed-symbolic.svg

<?xml version="1.0" encoding="UTF-8" standalone="no"?>
<svg
   xmlns:dc="http://purl.org/dc/elements/1.1/"
   xmlns:cc="http://creativecommons.org/ns#"
   xmlns:rdf="http://www.w3.org/1999/02/22-rdf-syntax-ns#"
   xmlns:svg="http://www.w3.org/2000/svg"
   xmlns="http://www.w3.org/2000/svg"
   xmlns:sodipodi="http://sodipodi.sourceforge.net/DTD/sodipodi-0.dtd"
   xmlns:inkscape="http://www.inkscape.org/namespaces/inkscape"
   width="22"
   height="22"
   version="1.1"
   id="svg8"
   sodipodi:docname="appointment-missed-symbolic.svg"
   inkscape:version="0.92.1 r">
  <metadata
     id="metadata14">
    <rdf:RDF>
      <cc:Work
         rdf:about="">
        <dc:format>image/svg+xml</dc:format>
        <dc:type
           rdf:resource="http://purl.org/dc/dcmitype/StillImage" />
      </cc:Work>
    </rdf:RDF>
  </metadata>
  <defs
     id="defs12" />
  <sodipodi:namedview
     pagecolor="#ffffff"
     bordercolor="#666666"
     borderopacity="1"
     objecttolerance="10"
     gridtolerance="10"
     guidetolerance="10"
     inkscape:pageopacity="0"
     inkscape:pageshadow="2"
     inkscape:window-width="769"
     inkscape:window-height="480"
     id="namedview10"
     showgrid="false"
     inkscape:zoom="10.727273"
     inkscape:cx="11"
     inkscape:cy="11"
     inkscape:window-x="0"
     inkscape:window-y="0"
     inkscape:window-maximized="0"
     inkscape:current-layer="svg8" />
  <g
     id="g4494"
     transform="matrix(0.93333333,0,0,0.93333333,3.0666667,3.0666667)">
    <path
       id="path2"
       d="m 11,11 v 1 c 0,0.28 0.1,0.54 0.28,0.72 l 0.78,0.78 -0.78,0.78 C 11.1,14.46 11,14.72 11,15 v 1 h 1 c 0.28,0 0.54,-0.1 0.72,-0.28 l 0.78,-0.78 0.78,0.78 C 14.46,15.9 14.72,16 15,16 h 1 v -1 c 0,-0.28 -0.1,-0.54 -0.28,-0.72 L 14.94,13.5 15.72,12.72 C 15.9,12.54 16,12.28 16,12 v -1 h -1 c -0.28,0 -0.54,0.1 -0.72,0.28 L 13.5,12.06 12.72,11.28 C 12.54,11.1 12.28,11 12,11 Z"
       style="fill:#d3dae3"
       inkscape:connector-curvature="0" />
    <path
       id="path4"
       d="m 8,1 a 7,7 0 0 0 -7,7 7,7 0 0 0 7,7 7,7 0 0 0 2,-0.295 V 12.576 A 5,5 0 0 1 8,13 5,5 0 0 1 3,8 5,5 0 0 1 8,3 a 5,5 0 0 1 5,5 5,5 0 0 1 -0.42,2 h 2.121 A 7,7 0 0 0 15,8 7,7 0 0 0 8,1 Z"
       style="opacity:0.3;fill:#d3dae3"
       inkscape:connector-curvature="0" />
    <path
       id="path6"
       d="M 6,6 8,8 10.5,5.5"
       style="opacity:0.3;fill:none;stroke:#d3dae3;stroke-linecap:round;stroke-linejoin:round"
       inkscape:connector-curvature="0" />
  </g>
</svg>

<svg xmlns="http://www.w3.org/2000/svg" width="16" height="16" version="1.1">
 <path style="fill:#5c616c" d="M 11,11 V 12 C 11,12.28 11.1,12.54 11.28,12.72 L 12.06,13.5 11.28,14.28 C 11.1,14.46 11,14.72 11,15 V 16 H 12 C 12.28,16 12.54,15.9 12.72,15.72 L 13.5,14.94 14.28,15.72 C 14.46,15.9 14.72,16 15,16 H 16 V 15 C 16,14.72 15.9,14.46 15.72,14.28 L 14.94,13.5 15.72,12.72 C 15.9,12.54 16,12.28 16,12 V 11 H 15 C 14.72,11 14.46,11.1 14.28,11.28 L 13.5,12.06 12.72,11.28 C 12.54,11.1 12.28,11 12,11 Z"/>
 <path style="fill:#5c616c;opacity:0.3" d="M 8 1 A 7 7 0 0 0 1 8 A 7 7 0 0 0 8 15 A 7 7 0 0 0 10 14.705 L 10 12.576 A 5 5 0 0 1 8 13 A 5 5 0 0 1 3 8 A 5 5 0 0 1 8 3 A 5 5 0 0 1 13 8 A 5 5 0 0 1 12.58 10 L 14.701 10 A 7 7 0 0 0 15 8 A 7 7 0 0 0 8 1 z"/>
 <path style="fill:none;stroke:#5c616c;stroke-linecap:round;stroke-linejoin:round;opacity:0.3" d="M 6,6 8,8 10.5,5.5"/>
</svg>
